packages/calcite-ui-icons/icons/3d-24.svg

<?xml version="1.0" encoding="UTF-8"?><svg id="icons" xmlns="http://www.w3.org/2000/svg" viewBox="0 0 24 24"><defs><style>.cls-1{fill:none;}</style></defs><path d="M9.75293,12c1.38867.66602,2.24707,1.94824,2.24707,3.55859,0,2.53223-1.93457,4.44141-4.5,4.44141-2.72559,0-4.78027-1.81348-4.78027-4.21875h1c0,1.83496,1.625,3.21875,3.78027,3.21875,1.99512,0,3.5-1.47949,3.5-3.44141,0-2.11328-1.80762-3.05859-3.59961-3.05859v-1c1.79199,0,3.59961-.94531,3.59961-3.05859,0-1.96191-1.50488-3.44141-3.5-3.44141-2.15527,0-3.78027,1.38379-3.78027,3.21875h-1c0-2.40527,2.05469-4.21875,4.78027-4.21875,2.56543,0,4.5,1.90918,4.5,4.44141,0,1.61035-.8584,2.89258-2.24707,3.55859ZM23,12c0,5.2334-3.28516,8-9.5,8h-.5V4h.5c6.21484,0,9.5,2.7666,9.5,8ZM22,12c0-4.57129-2.61816-6.8623-8-6.99414v13.98828c5.38184-.13184,8-2.42285,8-6.99414Z"/><rect class="cls-1" width="24" height="24"/></svg>

<svg xmlns="http://www.w3.org/2000/svg" viewBox="0 0 24 24"><path d="M9.753 12c1.389.666 2.247 1.948 2.247 3.559C12 18.09 10.065 20 7.5 20c-2.726 0-4.78-1.813-4.78-4.219h1C3.72 17.616 5.345 19 7.5 19c1.995 0 3.5-1.48 3.5-3.441 0-2.114-1.808-3.059-3.6-3.059v-1c1.792 0 3.6-.945 3.6-3.059C11 6.48 9.495 5 7.5 5 5.345 5 3.72 6.384 3.72 8.219h-1C2.72 5.813 4.774 4 7.5 4 10.065 4 12 5.91 12 8.441c0 1.61-.858 2.893-2.247 3.559zM23 12c0 5.233-3.285 8-9.5 8H13V4h.5c6.215 0 9.5 2.767 9.5 8zm-1 0c0-4.571-2.618-6.862-8-6.994v13.988c5.382-.132 8-2.423 8-6.994z"/><path fill="none" d="M0 0h24v24H0z"/></svg>
